svgs/apktool_m.svg

<svg xmlns="http://www.w3.org/2000/svg" viewBox="0 0 192 192"><path d="m43.558 155.81-26.205-.117-.529-.676c-1.071-1.368-1.071-2.327.001-9.926 4.261-30.206 18.138-56.67 37.877-72.234 1.158-.913 2.105-1.737 2.105-1.831 0-.095-.302-.843-.671-1.664-1.772-3.943-12.359-27.999-12.609-28.649-.601-1.564-.173-3.595.916-4.345.706-.487 1.899-.453 2.538.071.505.415 1.144 1.782 5.914 12.662 2.966 6.763 7.96 18.096 8.196 18.596l.245.522.996-.669c.548-.368 2.287-1.348 3.865-2.178 10.395-5.467 20.473-7.855 31.651-7.501 10.751.341 20.445 3.19 30.3 8.905l2.353 1.365 4.841-10.91c2.662-6.001 5.577-12.579 6.477-14.618 2.371-5.372 2.563-5.752 3.131-6.199.791-.623 1.972-.532 2.627.202 1.068 1.197 1.318 2.656.721 4.211-.247.641-10.775 24.463-13.091 29.619l-.324.722 1.612 1.235c.886.679 2.864 2.356 4.394 3.725 14.799 13.245 25.942 32.863 31.569 55.582 1.473 5.947 2.92 14.529 3.403 20.174.15 1.761-.339 3.078-1.375 3.705-.712.431-1.942.44-52.726.39-28.599-.028-63.79-.104-78.202-.169Zm126.982-6.828c0-.655-1.051-7.21-1.579-9.85-5.996-29.961-21.978-54.498-43.478-66.751-17.526-9.99-37.674-10.656-55.634-1.839-21.807 10.705-38.715 34.188-45.878 63.717-1.045 4.307-2.641 13.149-2.641 14.63 0 .42 1.952.431 74.605.431 65.256 0 74.605-.042 74.605-.338Zm-38.146-21.081c-.689-2.055-1.283-2.252-2.825-.938l-.956.815-.604-.614c-.543-.552-.595-.699-.506-1.452l.18-1.555a2 2 0 0 0-.275-1.323c-.318-.537-.498-.613-1.612-.673-1.246-.067-1.256-.073-1.594-.914l-.34-.846.811-1.265c.724-1.129.801-1.355.711-2.093-.086-.704-.253-.952-1.124-1.668-1.048-.862-1.159-1.151-.913-2.375.081-.403.365-.623 1.269-.982.992-.393 1.205-.573 1.431-1.211.254-.715.243-.818-.252-2.226l-.518-1.477.53-.707.531-.707 1.155.387c1.081.362 1.186.362 1.651-.005.395-.31.52-.611.606-1.454.228-2.219.241-2.252.991-2.552l.703-.281.636.979c.35.538.698 1.119.775 1.29.076.172.397.312.713.312.473 0 .739-.231 1.494-1.294l.918-1.294.615.312c.654.332.799.701.981 2.508.085.846.204 1.119.634 1.447.497.379.599.381 1.663.024l1.133-.379.531.707.53.707-.518 1.476c-.483 1.375-.502 1.525-.27 2.177.202.567.476.804 1.434 1.239 1.052.477 1.196.615 1.289 1.233.177 1.178.135 1.274-.92 2.129-.901.729-1.034.93-1.098 1.67-.064.722.034 1.018.697 2.102l.77 1.26-.307.909-.308.91h-1.265c-1.162 0-1.295.05-1.629.615-.265.449-.339.825-.273 1.39l.183 1.573c.083.716.029.855-.541 1.371l-.634.573-.929-.791c-1.513-1.29-2.113-1.084-2.798.96l-.495 1.479h-1.566l-.495-1.479Zm2.423-9.044c1.405-1.226 1.481-3.811.162-5.453-.395-.492-.632-.58-1.568-.58s-1.172.088-1.567.58c-.627.78-.954 1.672-.954 2.599 0 2.538 2.341 4.24 3.927 2.854Zm-78.01 6.889c-.239-.06-.904-.394-1.478-.744-2.947-1.793-4.804-6.343-4.268-10.454 1.016-7.776 8.028-11.192 12.273-5.979 1.843 2.264 2.591 4.666 2.481 7.963-.079 2.372-.56 4.089-1.64 5.844-1.647 2.679-4.64 4.048-7.368 3.37Zm2.607-6.692c1.709-.911 2.063-3.791.681-5.554-.472-.603-.649-.676-1.645-.676-1.054 0-1.152.048-1.756.853-.542.723-.651 1.04-.714 2.085-.061 1.015-.002 1.377.336 2.044.438.867 1.373 1.621 2.009 1.622.213 0 .703-.168 1.089-.374Z"/></svg>

<svg
    xmlns="http://www.w3.org/2000/svg"
    viewBox="0 0 192 192"
    id="vector">
    <path
        id="path_13"
        d="M 43.558 155.81 L 17.353 155.693 L 16.824 155.017 C 15.753 153.649 15.753 152.69 16.825 145.091 C 21.086 114.885 34.963 88.421 54.702 72.857 C 55.86 71.944 56.807 71.12 56.807 71.026 C 56.807 70.931 56.505 70.183 56.136 69.362 C 54.364 65.419 43.777 41.363 43.527 40.713 C 42.926 39.149 43.354 37.118 44.443 36.368 C 45.149 35.881 46.342 35.915 46.981 36.439 C 47.486 36.854 48.125 38.221 52.895 49.101 C 55.861 55.864 60.855 67.197 61.091 67.697 L 61.336 68.219 L 62.332 67.55 C 62.88 67.182 64.619 66.202 66.197 65.372 C 76.592 59.905 86.67 57.517 97.848 57.871 C 108.599 58.212 118.293 61.061 128.148 66.776 L 130.501 68.141 L 135.342 57.231 C 138.004 51.23 140.919 44.652 141.819 42.613 C 144.19 37.241 144.382 36.861 144.95 36.414 C 145.741 35.791 146.922 35.882 147.577 36.616 C 148.645 37.813 148.895 39.272 148.298 40.827 C 148.051 41.468 137.523 65.29 135.207 70.446 L 134.883 71.168 L 136.495 72.403 C 137.381 73.082 139.359 74.759 140.889 76.128 C 155.688 89.373 166.831 108.991 172.458 131.71 C 173.931 137.657 175.378 146.239 175.861 151.884 C 176.011 153.645 175.522 154.962 174.486 155.589 C 173.774 156.02 172.544 156.029 121.76 155.979 C 93.161 155.951 57.97 155.875 43.558 155.81 Z M 170.54 148.982 C 170.54 148.327 169.489 141.772 168.961 139.132 C 162.965 109.171 146.983 84.634 125.483 72.381 C 107.957 62.391 87.809 61.725 69.849 70.542 C 48.042 81.247 31.134 104.73 23.971 134.259 C 22.926 138.566 21.33 147.408 21.33 148.889 C 21.33 149.309 23.282 149.32 95.935 149.32 C 161.191 149.32 170.54 149.278 170.54 148.982 Z M 132.394 127.901 C 131.705 125.846 131.111 125.649 129.569 126.963 L 128.613 127.778 L 128.009 127.164 C 127.466 126.612 127.414 126.465 127.503 125.712 C 127.557 125.251 127.638 124.551 127.683 124.157 C 127.74 123.66 127.655 123.253 127.408 122.834 C 127.09 122.297 126.91 122.221 125.796 122.161 C 124.55 122.094 124.54 122.088 124.202 121.247 L 123.862 120.401 L 124.673 119.136 C 125.397 118.007 125.474 117.781 125.384 117.043 C 125.298 116.339 125.131 116.091 124.26 115.375 C 123.212 114.513 123.101 114.224 123.347 113 C 123.428 112.597 123.712 112.377 124.616 112.018 C 125.608 111.625 125.821 111.445 126.047 110.807 C 126.301 110.092 126.29 109.989 125.795 108.581 L 125.277 107.104 L 125.807 106.397 L 126.338 105.69 L 127.493 106.077 C 128.574 106.439 128.679 106.439 129.144 106.072 C 129.539 105.762 129.664 105.461 129.75 104.618 C 129.978 102.399 129.991 102.366 130.741 102.066 L 131.444 101.785 L 132.08 102.764 C 132.43 103.302 132.778 103.883 132.855 104.054 C 132.931 104.226 133.252 104.366 133.568 104.366 C 134.041 104.366 134.307 104.135 135.062 103.072 L 135.98 101.778 L 136.595 102.09 C 137.249 102.422 137.394 102.791 137.576 104.598 C 137.661 105.444 137.78 105.717 138.21 106.045 C 138.707 106.424 138.809 106.426 139.873 106.069 L 141.006 105.69 L 141.537 106.397 L 142.067 107.104 L 141.549 108.58 C 141.066 109.955 141.047 110.105 141.279 110.757 C 141.481 111.324 141.755 111.561 142.713 111.996 C 143.765 112.473 143.909 112.611 144.002 113.229 C 144.179 114.407 144.137 114.503 143.082 115.358 C 142.181 116.087 142.048 116.288 141.984 117.028 C 141.92 117.75 142.018 118.046 142.681 119.13 L 143.451 120.39 L 143.144 121.299 L 142.836 122.209 L 141.571 122.209 C 140.409 122.209 140.276 122.259 139.942 122.824 C 139.677 123.273 139.603 123.649 139.669 124.214 C 139.718 124.641 139.8 125.348 139.852 125.787 C 139.935 126.503 139.881 126.642 139.311 127.158 L 138.677 127.731 L 137.748 126.94 C 136.235 125.65 135.635 125.856 134.95 127.9 L 134.455 129.379 L 132.889 129.379 L 132.394 127.9 Z M 134.817 118.857 C 136.222 117.631 136.298 115.046 134.979 113.404 C 134.584 112.912 134.347 112.824 133.411 112.824 C 132.475 112.824 132.239 112.912 131.844 113.404 C 131.217 114.184 130.89 115.076 130.89 116.003 C 130.89 118.541 133.231 120.243 134.817 118.857 Z M 56.807 125.746 C 56.568 125.686 55.903 125.352 55.329 125.002 C 52.382 123.209 50.525 118.659 51.061 114.548 C 52.077 106.772 59.089 103.356 63.334 108.569 C 65.177 110.833 65.925 113.235 65.815 116.532 C 65.736 118.904 65.255 120.621 64.175 122.376 C 62.528 125.055 59.535 126.424 56.807 125.746 Z M 59.414 119.054 C 61.123 118.143 61.477 115.263 60.095 113.5 C 59.623 112.897 59.446 112.824 58.45 112.824 C 57.396 112.824 57.298 112.872 56.694 113.677 C 56.152 114.4 56.043 114.717 55.98 115.762 C 55.919 116.777 55.978 117.139 56.316 117.806 C 56.754 118.673 57.689 119.427 58.325 119.428 C 58.538 119.428 59.028 119.26 59.414 119.054 Z"
        fill="#000000"
        stroke-width="12"/>
</svg>
